files/icons/Arrow.svg

<svg width="52" height="55" viewBox="0 0 52 55" fill="none" xmlns="http://www.w3.org/2000/svg">
<g clip-path="url(#clip0)">
<path d="M18.0308 22.3904L26.1024 30.5963L34.174 22.3904L36.6536 24.9167L26.1024 35.6667L15.5513 24.9167L18.0308 22.3904Z" fill="#2B3541"/>
<g filter="url(#filter0_d)">
<path d="M50.5 28.5C50.5 42.3342 39.5042 53.5 26 53.5C12.4958 53.5 1.5 42.3342 1.5 28.5C1.5 14.6658 12.4958 3.5 26 3.5C39.5042 3.5 50.5 14.6658 50.5 28.5Z" stroke="#2B3541" stroke-width="3"/>
</g>
</g>
<defs>
<filter id="filter0_d" x="-24" y="-9" width="100" height="101" filterUnits="userSpaceOnUse" color-interpolation-filters="sRGB">
<feFlood flood-opacity="0" result="BackgroundImageFix"/>
<feColorMatrix in="SourceAlpha" type="matrix" values="0 0 0 0 0 0 0 0 0 0 0 0 0 0 0 0 0 0 127 0"/>
<feOffset dy="13"/>
<feGaussianBlur stdDeviation="12"/>
<feColorMatrix type="matrix" values="0 0 0 0 0.984314 0 0 0 0 0.945098 0 0 0 0 0.219608 0 0 0 0.3 0"/>
<feBlend mode="normal" in2="BackgroundImageFix" result="effect1_dropShadow"/>
<feBlend mode="normal" in="SourceGraphic" in2="effect1_dropShadow" result="shape"/>
</filter>
<clipPath id="clip0">
<rect width="52" height="55" fill="white"/>
</clipPath>
</defs>
</svg>

<svg xmlns="http://www.w3.org/2000/svg" width="52" height="55" fill="none" viewBox="0 0 52 55"><g clip-path="url(#a)"><path fill="#2b3541" d="m18.03 22.39 8.072 8.206 8.072-8.206 2.48 2.527-10.552 10.75-10.55-10.75z"/><g filter="url(#b)"><path stroke="#2b3541" stroke-width="3" d="M50.5 28.5c0 13.834-10.996 25-24.5 25S1.5 42.334 1.5 28.5s10.996-25 24.5-25 24.5 11.166 24.5 25Z"/></g></g><defs><clipPath id="a"><path fill="#fff" d="M0 0h52v55H0z"/></clipPath><filter id="b" width="100" height="101" x="-24" y="-9" color-interpolation-filters="sRGB" filterUnits="userSpaceOnUse"><feFlood flood-opacity="0" result="BackgroundImageFix"/><feColorMatrix in="SourceAlpha" values="0 0 0 0 0 0 0 0 0 0 0 0 0 0 0 0 0 0 127 0"/><feOffset dy="13"/><feGaussianBlur stdDeviation="12"/><feColorMatrix values="0 0 0 0 0.984314 0 0 0 0 0.945098 0 0 0 0 0.219608 0 0 0 0.3 0"/><feBlend in2="BackgroundImageFix" result="effect1_dropShadow"/><feBlend in="SourceGraphic" in2="effect1_dropShadow" result="shape"/></filter></defs></svg>
